X:1
L:1/8
Q:1/8=200
M:4/4
K:G
 A |""G"" B2 d2""D7"" G2 A2 |""G"" G3 A G2 D2 |""G"" B2 d2 G2 d2 |""C"" e2 g4 fe |""G"" d2 B2 A2 G2 | 
""C"" E2 e4 dc |""G"" d2 B2""D7"" A3 G |""G"" G6 :: ef |""G"" gfed g3 B |""Am"" A2 g4 A2 |""Em"" G3 A""Bm"" B2 F2 | 
""Em"" E2 e4 f2 |""G"" gfed g3 B |""Am"" A2 A2 c3 d |""C"" e2 B2""D7"" A3 G |""G"" G6 :|
